assets/img/decor-search.svg

<svg width="468" height="65" viewBox="0 0 468 65" fill="none" xmlns="http://www.w3.org/2000/svg">
<path d="M197.365 43.4583C200.359 42.4531 201.146 40.0989 202.562 38.4218C207.026 33.1249 212.094 28.4999 218 24.8645C230.224 17.3489 238.937 19.651 245.62 32.302C248.151 37.0885 250.104 42.1718 252.396 47.0885C253.391 49.2239 254.578 49.3801 256.266 47.6614C257.875 46.026 259.365 44.2864 260.943 42.6249C269.604 33.5364 279.818 26.8645 291.911 23.1406C303.943 19.4322 314.604 21.2812 323.443 30.7395C327.354 34.927 331.312 39.0729 335.411 43.0676C338.245 45.8281 339.76 45.7708 342.771 43.0104C347.198 38.9426 351.385 34.6041 355.891 30.6197C369.365 18.7135 384.604 9.78119 401.781 4.11973C408.125 2.02598 414.552 0.833268 421.245 0.927018C430.573 1.05723 438.828 4.13535 445.51 10.4999C454.052 18.6301 460.844 28.2291 467.365 37.9895C467.677 38.4531 468.047 39.0781 467.958 39.552C467.818 40.3229 467.51 41.302 466.927 41.6979C466.344 42.0937 465.177 42.1926 464.557 41.8697C463.578 41.3645 462.719 40.4947 462.026 39.6093C460.078 37.1406 458.245 34.5833 456.365 32.0572C453.635 28.3801 450.885 24.7239 448.193 21.026C437.729 6.64577 423.651 3.24993 406.995 7.62493C387.937 12.6301 371.62 22.4426 357.245 35.6197C354.292 38.3281 351.536 41.2551 348.615 44.0051C346.953 45.5729 345.255 47.151 343.359 48.4114C339.953 50.6822 336.964 50.5676 333.875 47.9322C331.484 45.8906 329.422 43.4791 327.198 41.2499C323.964 38.0051 320.865 34.6145 317.437 31.5781C312.203 26.9374 306.083 25.3124 299.042 26.5729C288.578 28.4479 279.385 32.8906 271.344 39.6301C267.844 42.5624 264.786 46.0208 261.542 49.2551C259.922 50.8697 258.448 52.6562 256.687 54.1041C254.297 56.0781 251.74 55.6979 250.068 53.1041C248.844 51.1979 247.969 49.0676 247 47.0051C244.812 42.3593 242.906 37.5624 240.443 33.0624C236.474 25.8124 231.521 24.3176 223.885 27.7812C218.589 30.1926 214.036 33.7187 210.208 38.0364C207.37 41.2447 204.917 44.7812 202.245 48.1354C200.823 49.9166 199.443 51.7604 197.812 53.3385C196.036 55.0676 193 54.0416 192.443 51.5572C192.068 49.901 192.052 48.1666 191.88 46.4687C191.516 42.7864 191.344 39.0676 190.75 35.4218C189.057 25.0051 182.823 19.3749 172.292 18.4114C165.161 17.7604 158.583 19.4218 152.448 22.9479C143.396 28.1562 135.495 34.6874 129.156 43.0156C127.432 45.2864 125.672 47.5416 123.75 49.651C122.474 51.0624 120.276 50.7864 119.37 49.0885C118.172 46.8385 117.13 44.4791 116.271 42.0833C114.536 37.2551 113 32.3489 110.495 27.8229C107.036 21.5885 101.724 18.2447 94.6041 17.5156C85.6354 16.5989 79.6302 19.5937 75.5729 27.6145C73.2604 32.1926 71.4531 37.0208 69.3489 41.7083C68.5416 43.5051 67.625 45.276 66.5833 46.9531C65.8958 48.0468 63.3593 47.9895 62.8073 46.8749C61.9375 45.1093 61.2083 43.2551 60.5937 41.3854C58.6406 35.4218 57 29.3489 53.6823 23.9166C50.0781 18.0104 45.1093 14.0989 38.1354 12.7187C31.4062 11.3854 25.5937 12.9739 20.5937 17.5312C16.4895 21.276 13.6614 25.901 11.7916 31.0676C8.38537 40.4739 5.20308 49.9426 5.17704 60.1093C5.17183 60.3958 5.18225 60.6822 5.16142 60.9635C4.93746 63.4166 3.88017 64.8176 2.41662 64.5416C0.661417 64.2135 0.36975 62.802 0.166625 61.3697C0.0832913 60.8072 0.0416253 60.2291 0.0728759 59.6614C0.848917 44.8801 4.35933 30.9062 13.0677 18.6301C24.4843 2.5416 45.6406 5.38014 55.8333 18.6354C58.2968 21.8437 60.1145 25.3801 61.5781 29.1197C62.5052 31.4947 63.427 33.8697 64.3593 36.2656C66.7968 36.0676 66.7916 34.0572 67.5156 32.7656C69.6093 29.0364 71.3593 25.0989 73.6406 21.4947C77.0937 16.0468 82.3437 13.4739 88.7812 12.9583C102.104 11.8958 110.828 16.8333 116.323 28.9426C118.318 33.3281 119.953 37.8749 121.714 42.2551C124.87 42.2395 125.667 39.7083 127.031 38.0364C133.823 29.7239 141.927 22.9895 151.427 17.9479C159.859 13.4739 168.74 11.9322 178.094 14.6354C188.125 17.5364 194.505 23.6718 195.792 34.3437C196.156 37.3385 196.812 40.2916 197.365 43.4583Z" fill="#121212"/>
</svg>

<svg width="468" height="65" fill="none" xmlns="http://www.w3.org/2000/svg"><path d="M197.365 43.458c2.994-1.005 3.781-3.36 5.197-5.036 4.464-5.297 9.532-9.922 15.438-13.557 12.224-7.516 20.937-5.214 27.62 7.437 2.531 4.787 4.484 9.87 6.776 14.787.995 2.135 2.182 2.291 3.87.572 1.609-1.635 3.099-3.375 4.677-5.036 8.661-9.089 18.875-15.76 30.968-19.484 12.032-3.709 22.693-1.86 31.532 7.599 3.911 4.187 7.869 8.333 11.968 12.328 2.834 2.76 4.349 2.703 7.36-.058 4.427-4.067 8.614-8.406 13.12-12.39 13.474-11.907 28.713-20.839 45.89-26.5 6.344-2.094 12.771-3.287 19.464-3.193 9.328.13 17.583 3.208 24.265 9.573 8.542 8.13 15.334 17.73 21.855 27.49.312.463.682 1.088.593 1.562-.14.77-.448 1.75-1.031 2.146-.583.396-1.75.495-2.37.172-.979-.505-1.838-1.375-2.531-2.26-1.948-2.47-3.781-5.027-5.661-7.553-2.73-3.677-5.48-7.333-8.172-11.031-10.464-14.38-24.542-17.776-41.198-13.401-19.058 5.005-35.375 14.818-49.75 27.995-2.953 2.708-5.709 5.635-8.63 8.385-1.662 1.568-3.36 3.146-5.256 4.406-3.406 2.271-6.395 2.157-9.484-.479-2.391-2.041-4.453-4.453-6.677-6.682-3.234-3.245-6.333-6.636-9.761-9.672-5.234-4.64-11.354-6.266-18.395-5.005-10.464 1.875-19.657 6.318-27.698 13.057-3.5 2.932-6.558 6.39-9.802 9.625-1.62 1.615-3.094 3.401-4.855 4.85-2.39 1.973-4.947 1.593-6.619-1-1.224-1.907-2.099-4.037-3.068-6.1-2.188-4.646-4.094-9.443-6.557-13.943-3.969-7.25-8.922-8.744-16.558-5.28-5.296 2.41-9.849 5.937-13.677 10.254-2.838 3.209-5.291 6.745-7.963 10.1-1.422 1.78-2.802 3.624-4.433 5.203-1.776 1.729-4.812.703-5.369-1.782-.375-1.656-.391-3.39-.563-5.088-.364-3.683-.536-7.401-1.13-11.047-1.693-10.417-7.927-16.047-18.458-17.01-7.131-.652-13.709 1.01-19.844 4.536-9.052 5.208-16.953 11.74-23.292 20.068-1.724 2.27-3.484 4.526-5.406 6.635-1.276 1.411-3.474 1.135-4.38-.563a53.074 53.074 0 01-3.099-7.005c-1.735-4.828-3.271-9.734-5.776-14.26-3.459-6.235-8.771-9.578-15.89-10.307-8.97-.917-14.975 2.078-19.032 10.099-2.313 4.578-4.12 9.406-6.224 14.093a44.578 44.578 0 01-2.766 5.245c-.687 1.094-3.224 1.036-3.776-.078a42.423 42.423 0 01-2.213-5.49C58.64 35.422 57 29.35 53.682 23.917c-3.604-5.907-8.573-9.818-15.547-11.198-6.729-1.334-12.541.255-17.541 4.812-4.105 3.745-6.933 8.37-8.802 13.537-3.407 9.406-6.589 18.875-6.615 29.041-.005.287.005.573-.016.855-.224 2.453-1.28 3.854-2.744 3.578C.66 64.213.37 62.802.167 61.37a8.528 8.528 0 01-.094-1.709c.776-14.78 4.286-28.755 12.995-41.03 11.416-16.09 32.573-13.25 42.765.004 2.464 3.209 4.282 6.745 5.745 10.485.927 2.375 1.849 4.75 2.781 7.146 2.438-.198 2.433-2.209 3.157-3.5 2.093-3.73 3.843-7.667 6.125-11.271 3.453-5.448 8.703-8.021 15.14-8.537 13.323-1.062 22.047 3.875 27.542 15.985 1.995 4.385 3.63 8.932 5.391 13.312 3.156-.016 3.953-2.547 5.317-4.219 6.792-8.312 14.896-15.047 24.396-20.088 8.432-4.474 17.313-6.016 26.667-3.313 10.031 2.901 16.411 9.037 17.698 19.709.364 2.995 1.02 5.948 1.573 9.114z" fill="#121212"/></svg>
